X:306
T: ES WOLLT EIN MAEDCHEN SPAZIEREN GEHN
N: E0174C
O: Europa, Mitteleuropa, Deutschland, Uckermark, Granzow
R: erzaehlendes Volks - Lied, Sage, Pflanzen - Maerchen, Moral - Lied
M: 3/4
L: 1/16
K: G
D2 | D2G2G4G4 | D2FGA6
BA | G2G2G6AB | c2B2A4z2
B2 | G2G2c6B2 | A2G2A6
B2 | G2G2B3AG2G2 | F4G4z2

@@@ Tune index: 3956
